X: 33673
T: Rambling Rake, The
R: hornpipe
M: 4/4
K: Aminor
|:~E2|AGAB cBcd|efec d2 ge|~d2 ge ~d2 ge|dcBA ~G2 (3EGE|
AGAB cBcd|efec d2 ge|dBGB dedB|cAAG A2:|
~d2|efec ~d2 (3g^fg|efec ~d2 (3g^fg|fgaf ~d2 (3g^fg|fgaf ~d2 ga|
bagf efga|bagf efga|baga bagf|e^def (3gag fg|
efec ~d2 (3g^fg|efed (3cdc Bc|ABcd g^fge|dcBA (3GAG ~E2|
AGAB cBcd|efec d2 ge|dBGB dedB|cAAG A2 z2||

